Newaita-dark/apps/24/stage.svg

<svg height="24" viewBox="0 0 24 24" width="24" xmlns="http://www.w3.org/2000/svg" xmlns:xlink="http://www.w3.org/1999/xlink"><linearGradient id="a" gradientUnits="userSpaceOnUse" x1="11.90739" x2="11.90739" y1="21.02545225" y2="22.01773525002"><stop offset="0" stop-opacity=".27451"/><stop offset="1" stop-opacity="0"/></linearGradient><linearGradient id="b"><stop offset="0" stop-opacity=".313726"/><stop offset=".222222" stop-opacity=".27451"/><stop offset="1" stop-opacity="0"/></linearGradient><radialGradient id="c" cx="450.908936" cy="189.579361" gradientTransform="matrix(.00000013 -.0585994 -.105479 -.00000008 39.842197 47.696499)" gradientUnits="userSpaceOnUse" r="21.166656" xlink:href="#b"/><radialGradient id="d" cx="450.908936" cy="189.579361" gradientTransform="matrix(-.00000013 .0585994 .105479 .00000008 -15.90339 -5.645609)" gradientUnits="userSpaceOnUse" r="21.166656" xlink:href="#b"/><radialGradient id="e" cx="450.908936" cy="189.579361" gradientTransform="matrix(-.00000013 -.0585994 .105479 -.00000008 -15.90339 47.696499)" gradientUnits="userSpaceOnUse" r="21.166656" xlink:href="#b"/><radialGradient id="f" cx="450.908936" cy="189.579361" gradientTransform="matrix(.00000013 .0585994 -.105479 .00000008 39.842196 -5.64561)" gradientUnits="userSpaceOnUse" r="21.166656" xlink:href="#b"/><linearGradient id="g" gradientUnits="userSpaceOnUse" x1="11.907393" x2="11.907393" y1="2.23409550005" y2="21.08746725"><stop offset="0" stop-color="#eee"/><stop offset="1" stop-color="#e0e0e0"/></linearGradient><linearGradient id="h" gradientUnits="userSpaceOnUse" x1="12.40353600005" x2="12.40353600005" y1="16.06403707818" y2="5.14892675005"><stop offset="0" stop-color="#ef5350"/><stop offset="1" stop-color="#e57373"/></linearGradient><linearGradient id="i" gradientUnits="userSpaceOnUse" x1="17.36494437495" x2="17.36494582822" y1="16.06403699995" y2="5.14892667182"><stop offset="0" stop-color="#66bb6a"/><stop offset="1" stop-color="#81c784"/></linearGradient><linearGradient id="j" gradientUnits="userSpaceOnUse" x1="5.95369837495" x2="5.95369982822" y1="16.06403299995" y2="5.14892623466"><stop offset="0" stop-color="#26a69a"/><stop offset="1" stop-color="#4db6ac"/></linearGradient><linearGradient id="k" gradientUnits="userSpaceOnUse" x1="9.92282737495" x2="9.92283028148" y1="16.06403699995" y2="5.14892775005"><stop offset="0" stop-color="#ffa726"/><stop offset="1" stop-color="#ffb74d"/></linearGradient><path d="m3.84375 21.027344h16.25v.992187h-16.25zm0 0" fill="url(#a)"/><path d="m20.09375 21.027344h1.984375v-.996094h-1.984375zm0 0" fill="url(#c)"/><path d="m3.84375 21.027344h-1.984375v.992187h1.984375zm0 0" fill="url(#d)"/><path d="m3.84375 21.027344h-1.984375v-.996094h1.984375zm0 0" fill="url(#e)"/><path d="m20.09375 21.027344h1.984375v.992187h-1.984375zm0 0" fill="url(#f)"/><path d="m2.730469 2.234375h18.355469c.410156 0 .746093.332031.746093.742187v17.367188c0 .410156-.335937.742188-.746093.742188h-18.355469c-.414063 0-.746094-.332032-.746094-.742188v-17.367188c0-.410156.332031-.742187.746094-.742187zm0 0" fill="url(#g)"/><path d="m2.730469 21.085938c-.414063 0-.746094-.332032-.746094-.742188v-.3125c0 .414062.332031.746094.746094.746094h18.355469c.414062 0 .746093-.332032.746093-.746094v.3125c0 .410156-.332031.742188-.746093.742188zm0 0" fill-opacity=".235294"/><path d="m2.730469 2.234375c-.414063 0-.746094.332031-.746094.742187v.3125c0-.414062.332031-.746093.746094-.746093h18.355469c.414062 0 .746093.332031.746093.746093v-.3125c0-.410156-.332031-.742187-.746093-.742187zm0 0" fill="#fff"/><path d="m2.730469 2.101562c-.453125 0-.816407.363282-.816407.816407v17.363281c0 .449219.363282.816406.816407.816406h18.355469c.449218 0 .816406-.367187.816406-.816406v-17.363281c0-.453125-.367188-.816407-.816406-.816407zm0 .140626h18.355469c.375 0 .675781.300781.675781.675781v17.363281c0 .375-.300781.675781-.675781.675781h-18.355469c-.375 0-.675781-.300781-.675781-.675781v-17.363281c0-.375.300781-.675781.675781-.675781zm0 0" fill="#212121"/><path d="m12.898438 13.085938h1.984374c.277344 0 .496094.222656.496094.496093v1.984375c0 .277344-.21875.496094-.496094.496094h-1.984374c-.273438 0-.496094-.21875-.496094-.496094v-1.984375c0-.273437.222656-.496093.496094-.496093zm0 0" fill="url(#h)"/><path d="m16.867188 6.636719h1.984374c.277344 0 .496094.222656.496094.496093v8.433594c0 .277344-.21875.496094-.496094.496094h-1.984374c-.273438 0-.496094-.21875-.496094-.496094v-8.433594c0-.273437.222656-.496093.496094-.496093zm0 0" fill="url(#i)"/><path d="m4.960938 5.148438h1.984374c.273438 0 .496094.222656.496094.496093v9.921875c0 .277344-.222656.496094-.496094.496094h-1.984374c-.273438 0-.496094-.21875-.496094-.496094v-9.921875c0-.273437.222656-.496093.496094-.496093zm0 0" fill="url(#j)"/><path d="m8.929688 10.109375h1.984374c.273438 0 .496094.222656.496094.496094v4.960937c0 .277344-.222656.496094-.496094.496094h-1.984374c-.273438 0-.496094-.21875-.496094-.496094v-4.960937c0-.273438.222656-.496094.496094-.496094zm0 0" fill="url(#k)"/><path d="m4.960938 5.148438c-.273438 0-.496094.222656-.496094.496093v.25c0-.277343.222656-.496093.496094-.496093h1.984374c.277344 0 .496094.21875.496094.496093v-.25c0-.273437-.21875-.496093-.496094-.496093zm11.90625 1.488281c-.273438 0-.496094.222656-.496094.496093v.25c0-.277343.222656-.496093.496094-.496093h1.984374c.277344 0 .496094.21875.496094.496093v-.25c0-.273437-.21875-.496093-.496094-.496093zm-7.9375 3.472656c-.273438 0-.496094.222656-.496094.496094v.25c0-.277344.222656-.496094.496094-.496094h1.984374c.277344 0 .496094.21875.496094.496094v-.25c0-.273438-.21875-.496094-.496094-.496094zm3.96875 2.976563c-.273438 0-.496094.222656-.496094.496093v.25c0-.277343.222656-.496093.496094-.496093h1.984374c.277344 0 .496094.21875.496094.496093v-.25c0-.273437-.21875-.496093-.496094-.496093zm0 0" fill="#fff" fill-opacity=".392157"/><path d="m4.464844 15.566406v.496094c0 .277344.222656.496094.496094.496094h1.984374c.277344 0 .496094-.21875.496094-.496094v-.496094c0 .277344-.21875.496094-.496094.496094h-1.984374c-.273438 0-.496094-.21875-.496094-.496094zm3.96875 0v.496094c0 .277344.222656.496094.496094.496094h1.984374c.277344 0 .496094-.21875.496094-.496094v-.496094c0 .277344-.21875.496094-.496094.496094h-1.984374c-.273438 0-.496094-.21875-.496094-.496094zm3.96875 0v.496094c0 .277344.222656.496094.496094.496094h1.984374c.277344 0 .496094-.21875.496094-.496094v-.496094c0 .277344-.21875.496094-.496094.496094h-1.984374c-.273438 0-.496094-.21875-.496094-.496094zm3.96875 0v.496094c0 .277344.222656.496094.496094.496094h1.984374c.277344 0 .496094-.21875.496094-.496094v-.496094c0 .277344-.21875.496094-.496094.496094h-1.984374c-.273438 0-.496094-.21875-.496094-.496094zm0 0" fill-opacity=".235294"/><g fill="none" stroke="#212121" stroke-linejoin="round" stroke-width="3" transform="matrix(.0468795 0 0 .0468795 0 10.079087)"><path d="m275.140392 64.14001h42.329291c5.916102 0 10.582323 4.749547 10.582323 10.582323v42.329291c0 5.916102-4.666221 10.582323-10.582323 10.582323h-42.329291c-5.832776 0-10.582323-4.666221-10.582323-10.582323v-42.329291c0-5.832776 4.749547-10.582323 10.582323-10.582323zm0 0"/><path d="m359.798974-73.430186h42.329291c5.916102 0 10.582323 4.749547 10.582323 10.582323v179.899487c0 5.916102-4.666221 10.582323-10.582323 10.582323h-42.329291c-5.832776 0-10.582323-4.666221-10.582323-10.582323v-179.899487c0-5.832776 4.749547-10.582323 10.582323-10.582323zm0 0"/><path d="m105.823228-105.177154h42.329291c5.832776 0 10.582323 4.749546 10.582323 10.582323v211.646455c0 5.916102-4.749547 10.582323-10.582323 10.582323h-42.329291c-5.832777 0-10.582323-4.666221-10.582323-10.582323v-211.646455c0-5.832777 4.749546-10.582323 10.582323-10.582323zm0 0"/><path d="m190.48181.646073h42.329291c5.832776 0 10.582323 4.749547 10.582323 10.582323v105.823228c0 5.916102-4.749547 10.582323-10.582323 10.582323h-42.329291c-5.832776 0-10.582323-4.666221-10.582323-10.582323v-105.823228c0-5.832776 4.749547-10.582323 10.582323-10.582323zm0 0"/></g></svg>

<?xml version="1.0" encoding="UTF-8"?>
<svg xmlns="http://www.w3.org/2000/svg" xmlns:xlink="http://www.w3.org/1999/xlink" width="24px" height="24px" viewBox="0 0 24 24" version="1.1">
<defs>
<linearGradient id="linear0" gradientUnits="userSpaceOnUse" x1="254" y1="233.5" x2="254" y2="254.666672" gradientTransform="matrix(0.0468795,0,0,0.0468795,-0.0000028613,10.079089)">
<stop offset="0" style="stop-color:rgb(0%,0%,0%);stop-opacity:0.27451;"/>
<stop offset="1" style="stop-color:rgb(0%,0%,0%);stop-opacity:0;"/>
</linearGradient>
<radialGradient id="radial0" gradientUnits="userSpaceOnUse" cx="450.908936" cy="189.579361" fx="450.908936" fy="189.579361" r="21.166656" gradientTransform="matrix(0.000000130628,-0.0585994,-0.105479,-0.0000000761539,39.842197,47.696499)">
<stop offset="0" style="stop-color:rgb(0%,0%,0%);stop-opacity:0.313726;"/>
<stop offset="0.222222" style="stop-color:rgb(0%,0%,0%);stop-opacity:0.27451;"/>
<stop offset="1" style="stop-color:rgb(0%,0%,0%);stop-opacity:0;"/>
</radialGradient>
<radialGradient id="radial1" gradientUnits="userSpaceOnUse" cx="450.908936" cy="189.579361" fx="450.908936" fy="189.579361" r="21.166656" gradientTransform="matrix(-0.000000130628,0.0585994,0.105479,0.0000000761539,-15.90339,-5.645609)">
<stop offset="0" style="stop-color:rgb(0%,0%,0%);stop-opacity:0.313726;"/>
<stop offset="0.222222" style="stop-color:rgb(0%,0%,0%);stop-opacity:0.27451;"/>
<stop offset="1" style="stop-color:rgb(0%,0%,0%);stop-opacity:0;"/>
</radialGradient>
<radialGradient id="radial2" gradientUnits="userSpaceOnUse" cx="450.908936" cy="189.579361" fx="450.908936" fy="189.579361" r="21.166656" gradientTransform="matrix(-0.000000130628,-0.0585994,0.105479,-0.0000000761539,-15.90339,47.696499)">
<stop offset="0" style="stop-color:rgb(0%,0%,0%);stop-opacity:0.313726;"/>
<stop offset="0.222222" style="stop-color:rgb(0%,0%,0%);stop-opacity:0.27451;"/>
<stop offset="1" style="stop-color:rgb(0%,0%,0%);stop-opacity:0;"/>
</radialGradient>
<radialGradient id="radial3" gradientUnits="userSpaceOnUse" cx="450.908936" cy="189.579361" fx="450.908936" fy="189.579361" r="21.166656" gradientTransform="matrix(0.000000130628,0.0585994,-0.105479,0.0000000761539,39.842196,-5.64561)">
<stop offset="0" style="stop-color:rgb(0%,0%,0%);stop-opacity:0.313726;"/>
<stop offset="0.222222" style="stop-color:rgb(0%,0%,0%);stop-opacity:0.27451;"/>
<stop offset="1" style="stop-color:rgb(0%,0%,0%);stop-opacity:0;"/>
</radialGradient>
<linearGradient id="linear1" gradientUnits="userSpaceOnUse" x1="254" y1="-168.666656" x2="254" y2="233.5" gradientTransform="matrix(0.0468795,0,0,0.0468795,0,10.141104)">
<stop offset="0" style="stop-color:rgb(93.333334%,93.333334%,93.333334%);stop-opacity:1;"/>
<stop offset="1" style="stop-color:rgb(87.843138%,87.843138%,87.843138%);stop-opacity:1;"/>
</linearGradient>
<linearGradient id="linear2" gradientUnits="userSpaceOnUse" x1="296.333344" y1="127.666679" x2="296.333344" y2="-105.166656" gradientTransform="matrix(0.0468795,0,0,0.0468795,-1.488423,10.079087)">
<stop offset="0" style="stop-color:rgb(93.725491%,32.549021%,31.37255%);stop-opacity:1;"/>
<stop offset="1" style="stop-color:rgb(89.803922%,45.09804%,45.09804%);stop-opacity:1;"/>
</linearGradient>
<linearGradient id="linear3" gradientUnits="userSpaceOnUse" x1="306.916656" y1="127.666656" x2="306.916687" y2="-105.166679" gradientTransform="matrix(0.0468795,0,0,0.0468795,2.976845,10.079088)">
<stop offset="0" style="stop-color:rgb(40.000001%,73.333335%,41.568628%);stop-opacity:1;"/>
<stop offset="1" style="stop-color:rgb(50.588238%,78.039217%,51.764709%);stop-opacity:1;"/>
</linearGradient>
<linearGradient id="linear4" gradientUnits="userSpaceOnUse" x1="306.916656" y1="127.666656" x2="306.916687" y2="-105.166603" gradientTransform="matrix(0.0468795,0,0,0.0468795,-8.434401,10.079084)">
<stop offset="0" style="stop-color:rgb(14.901961%,65.098041%,60.392159%);stop-opacity:1;"/>
<stop offset="1" style="stop-color:rgb(30.19608%,71.372551%,67.450982%);stop-opacity:1;"/>
</linearGradient>
<linearGradient id="linear5" gradientUnits="userSpaceOnUse" x1="306.916656" y1="127.666656" x2="306.916718" y2="-105.166656" gradientTransform="matrix(0.0468795,0,0,0.0468795,-4.465272,10.079088)">
<stop offset="0" style="stop-color:rgb(100%,65.490198%,14.901961%);stop-opacity:1;"/>
<stop offset="1" style="stop-color:rgb(100%,71.764708%,30.19608%);stop-opacity:1;"/>
</linearGradient>
</defs>
<g id="surface1">
<path style=" stroke:none;fill-rule:nonzero;fill:url(#linear0);" d="M 3.84375 21.027344 L 20.09375 21.027344 L 20.09375 22.019531 L 3.84375 22.019531 Z M 3.84375 21.027344 "/>
<path style=" stroke:none;fill-rule:nonzero;fill:url(#radial0);" d="M 20.09375 21.027344 L 22.078125 21.027344 L 22.078125 20.03125 L 20.09375 20.03125 Z M 20.09375 21.027344 "/>
<path style=" stroke:none;fill-rule:nonzero;fill:url(#radial1);" d="M 3.84375 21.027344 L 1.859375 21.027344 L 1.859375 22.019531 L 3.84375 22.019531 Z M 3.84375 21.027344 "/>
<path style=" stroke:none;fill-rule:nonzero;fill:url(#radial2);" d="M 3.84375 21.027344 L 1.859375 21.027344 L 1.859375 20.03125 L 3.84375 20.03125 Z M 3.84375 21.027344 "/>
<path style=" stroke:none;fill-rule:nonzero;fill:url(#radial3);" d="M 20.09375 21.027344 L 22.078125 21.027344 L 22.078125 22.019531 L 20.09375 22.019531 Z M 20.09375 21.027344 "/>
<path style=" stroke:none;fill-rule:nonzero;fill:url(#linear1);" d="M 2.730469 2.234375 L 21.085938 2.234375 C 21.496094 2.234375 21.832031 2.566406 21.832031 2.976562 L 21.832031 20.34375 C 21.832031 20.753906 21.496094 21.085938 21.085938 21.085938 L 2.730469 21.085938 C 2.316406 21.085938 1.984375 20.753906 1.984375 20.34375 L 1.984375 2.976562 C 1.984375 2.566406 2.316406 2.234375 2.730469 2.234375 Z M 2.730469 2.234375 "/>
<path style=" stroke:none;fill-rule:nonzero;fill:rgb(0%,0%,0%);fill-opacity:0.235294;" d="M 2.730469 21.085938 C 2.316406 21.085938 1.984375 20.753906 1.984375 20.34375 L 1.984375 20.03125 C 1.984375 20.445312 2.316406 20.777344 2.730469 20.777344 L 21.085938 20.777344 C 21.5 20.777344 21.832031 20.445312 21.832031 20.03125 L 21.832031 20.34375 C 21.832031 20.753906 21.5 21.085938 21.085938 21.085938 Z M 2.730469 21.085938 "/>
<path style=" stroke:none;fill-rule:nonzero;fill:rgb(100%,100%,100%);fill-opacity:1;" d="M 2.730469 2.234375 C 2.316406 2.234375 1.984375 2.566406 1.984375 2.976562 L 1.984375 3.289062 C 1.984375 2.875 2.316406 2.542969 2.730469 2.542969 L 21.085938 2.542969 C 21.5 2.542969 21.832031 2.875 21.832031 3.289062 L 21.832031 2.976562 C 21.832031 2.566406 21.5 2.234375 21.085938 2.234375 Z M 2.730469 2.234375 "/>
<path style=" stroke:none;fill-rule:nonzero;fill:rgb(12.941177%,12.941177%,12.941177%);fill-opacity:1;" d="M 2.730469 2.101562 C 2.277344 2.101562 1.914062 2.464844 1.914062 2.917969 L 1.914062 20.28125 C 1.914062 20.730469 2.277344 21.097656 2.730469 21.097656 L 21.085938 21.097656 C 21.535156 21.097656 21.902344 20.730469 21.902344 20.28125 L 21.902344 2.917969 C 21.902344 2.464844 21.535156 2.101562 21.085938 2.101562 Z M 2.730469 2.242188 L 21.085938 2.242188 C 21.460938 2.242188 21.761719 2.542969 21.761719 2.917969 L 21.761719 20.28125 C 21.761719 20.65625 21.460938 20.957031 21.085938 20.957031 L 2.730469 20.957031 C 2.355469 20.957031 2.054688 20.65625 2.054688 20.28125 L 2.054688 2.917969 C 2.054688 2.542969 2.355469 2.242188 2.730469 2.242188 Z M 2.730469 2.242188 "/>
<path style=" stroke:none;fill-rule:nonzero;fill:url(#linear2);" d="M 12.898438 13.085938 L 14.882812 13.085938 C 15.160156 13.085938 15.378906 13.308594 15.378906 13.582031 L 15.378906 15.566406 C 15.378906 15.84375 15.160156 16.0625 14.882812 16.0625 L 12.898438 16.0625 C 12.625 16.0625 12.402344 15.84375 12.402344 15.566406 L 12.402344 13.582031 C 12.402344 13.308594 12.625 13.085938 12.898438 13.085938 Z M 12.898438 13.085938 "/>
<path style=" stroke:none;fill-rule:nonzero;fill:url(#linear3);" d="M 16.867188 6.636719 L 18.851562 6.636719 C 19.128906 6.636719 19.347656 6.859375 19.347656 7.132812 L 19.347656 15.566406 C 19.347656 15.84375 19.128906 16.0625 18.851562 16.0625 L 16.867188 16.0625 C 16.59375 16.0625 16.371094 15.84375 16.371094 15.566406 L 16.371094 7.132812 C 16.371094 6.859375 16.59375 6.636719 16.867188 6.636719 Z M 16.867188 6.636719 "/>
<path style=" stroke:none;fill-rule:nonzero;fill:url(#linear4);" d="M 4.960938 5.148438 L 6.945312 5.148438 C 7.21875 5.148438 7.441406 5.371094 7.441406 5.644531 L 7.441406 15.566406 C 7.441406 15.84375 7.21875 16.0625 6.945312 16.0625 L 4.960938 16.0625 C 4.6875 16.0625 4.464844 15.84375 4.464844 15.566406 L 4.464844 5.644531 C 4.464844 5.371094 4.6875 5.148438 4.960938 5.148438 Z M 4.960938 5.148438 "/>
<path style=" stroke:none;fill-rule:nonzero;fill:url(#linear5);" d="M 8.929688 10.109375 L 10.914062 10.109375 C 11.1875 10.109375 11.410156 10.332031 11.410156 10.605469 L 11.410156 15.566406 C 11.410156 15.84375 11.1875 16.0625 10.914062 16.0625 L 8.929688 16.0625 C 8.65625 16.0625 8.433594 15.84375 8.433594 15.566406 L 8.433594 10.605469 C 8.433594 10.332031 8.65625 10.109375 8.929688 10.109375 Z M 8.929688 10.109375 "/>
<path style=" stroke:none;fill-rule:nonzero;fill:rgb(100%,100%,100%);fill-opacity:0.392157;" d="M 4.960938 5.148438 C 4.6875 5.148438 4.464844 5.371094 4.464844 5.644531 L 4.464844 5.894531 C 4.464844 5.617188 4.6875 5.398438 4.960938 5.398438 L 6.945312 5.398438 C 7.222656 5.398438 7.441406 5.617188 7.441406 5.894531 L 7.441406 5.644531 C 7.441406 5.371094 7.222656 5.148438 6.945312 5.148438 Z M 16.867188 6.636719 C 16.59375 6.636719 16.371094 6.859375 16.371094 7.132812 L 16.371094 7.382812 C 16.371094 7.105469 16.59375 6.886719 16.867188 6.886719 L 18.851562 6.886719 C 19.128906 6.886719 19.347656 7.105469 19.347656 7.382812 L 19.347656 7.132812 C 19.347656 6.859375 19.128906 6.636719 18.851562 6.636719 Z M 8.929688 10.109375 C 8.65625 10.109375 8.433594 10.332031 8.433594 10.605469 L 8.433594 10.855469 C 8.433594 10.578125 8.65625 10.359375 8.929688 10.359375 L 10.914062 10.359375 C 11.191406 10.359375 11.410156 10.578125 11.410156 10.855469 L 11.410156 10.605469 C 11.410156 10.332031 11.191406 10.109375 10.914062 10.109375 Z M 12.898438 13.085938 C 12.625 13.085938 12.402344 13.308594 12.402344 13.582031 L 12.402344 13.832031 C 12.402344 13.554688 12.625 13.335938 12.898438 13.335938 L 14.882812 13.335938 C 15.160156 13.335938 15.378906 13.554688 15.378906 13.832031 L 15.378906 13.582031 C 15.378906 13.308594 15.160156 13.085938 14.882812 13.085938 Z M 12.898438 13.085938 "/>
<path style=" stroke:none;fill-rule:nonzero;fill:rgb(0%,0%,0%);fill-opacity:0.235294;" d="M 4.464844 15.566406 L 4.464844 16.0625 C 4.464844 16.339844 4.6875 16.558594 4.960938 16.558594 L 6.945312 16.558594 C 7.222656 16.558594 7.441406 16.339844 7.441406 16.0625 L 7.441406 15.566406 C 7.441406 15.84375 7.222656 16.0625 6.945312 16.0625 L 4.960938 16.0625 C 4.6875 16.0625 4.464844 15.84375 4.464844 15.566406 Z M 8.433594 15.566406 L 8.433594 16.0625 C 8.433594 16.339844 8.65625 16.558594 8.929688 16.558594 L 10.914062 16.558594 C 11.191406 16.558594 11.410156 16.339844 11.410156 16.0625 L 11.410156 15.566406 C 11.410156 15.84375 11.191406 16.0625 10.914062 16.0625 L 8.929688 16.0625 C 8.65625 16.0625 8.433594 15.84375 8.433594 15.566406 Z M 12.402344 15.566406 L 12.402344 16.0625 C 12.402344 16.339844 12.625 16.558594 12.898438 16.558594 L 14.882812 16.558594 C 15.160156 16.558594 15.378906 16.339844 15.378906 16.0625 L 15.378906 15.566406 C 15.378906 15.84375 15.160156 16.0625 14.882812 16.0625 L 12.898438 16.0625 C 12.625 16.0625 12.402344 15.84375 12.402344 15.566406 Z M 16.371094 15.566406 L 16.371094 16.0625 C 16.371094 16.339844 16.59375 16.558594 16.867188 16.558594 L 18.851562 16.558594 C 19.128906 16.558594 19.347656 16.339844 19.347656 16.0625 L 19.347656 15.566406 C 19.347656 15.84375 19.128906 16.0625 18.851562 16.0625 L 16.867188 16.0625 C 16.59375 16.0625 16.371094 15.84375 16.371094 15.566406 Z M 16.371094 15.566406 "/>
<path style="fill:none;stroke-width:3;stroke-linecap:butt;stroke-linejoin:round;stroke:rgb(12.941177%,12.941177%,12.941177%);stroke-opacity:1;stroke-miterlimit:4;" d="M 275.140392 64.14001 L 317.469683 64.14001 C 323.385785 64.14001 328.052006 68.889557 328.052006 74.722333 L 328.052006 117.051624 C 328.052006 122.967726 323.385785 127.633947 317.469683 127.633947 L 275.140392 127.633947 C 269.307616 127.633947 264.558069 122.967726 264.558069 117.051624 L 264.558069 74.722333 C 264.558069 68.889557 269.307616 64.14001 275.140392 64.14001 Z M 275.140392 64.14001 " transform="matrix(0.0468795,0,0,0.0468795,0,10.079087)"/>
<path style="fill:none;stroke-width:3;stroke-linecap:butt;stroke-linejoin:round;stroke:rgb(12.941177%,12.941177%,12.941177%);stroke-opacity:1;stroke-miterlimit:4;" d="M 359.798974 -73.430186 L 402.128265 -73.430186 C 408.044367 -73.430186 412.710588 -68.680639 412.710588 -62.847863 L 412.710588 117.051624 C 412.710588 122.967726 408.044367 127.633947 402.128265 127.633947 L 359.798974 127.633947 C 353.966198 127.633947 349.216651 122.967726 349.216651 117.051624 L 349.216651 -62.847863 C 349.216651 -68.680639 353.966198 -73.430186 359.798974 -73.430186 Z M 359.798974 -73.430186 " transform="matrix(0.0468795,0,0,0.0468795,0,10.079087)"/>
<path style="fill:none;stroke-width:3;stroke-linecap:butt;stroke-linejoin:round;stroke:rgb(12.941177%,12.941177%,12.941177%);stroke-opacity:1;stroke-miterlimit:4;" d="M 105.823228 -105.177154 L 148.152519 -105.177154 C 153.985295 -105.177154 158.734842 -100.427608 158.734842 -94.594831 L 158.734842 117.051624 C 158.734842 122.967726 153.985295 127.633947 148.152519 127.633947 L 105.823228 127.633947 C 99.990451 127.633947 95.240905 122.967726 95.240905 117.051624 L 95.240905 -94.594831 C 95.240905 -100.427608 99.990451 -105.177154 105.823228 -105.177154 Z M 105.823228 -105.177154 " transform="matrix(0.0468795,0,0,0.0468795,0,10.079087)"/>
<path style="fill:none;stroke-width:3;stroke-linecap:butt;stroke-linejoin:round;stroke:rgb(12.941177%,12.941177%,12.941177%);stroke-opacity:1;stroke-miterlimit:4;" d="M 190.48181 0.646073 L 232.811101 0.646073 C 238.643877 0.646073 243.393424 5.39562 243.393424 11.228396 L 243.393424 117.051624 C 243.393424 122.967726 238.643877 127.633947 232.811101 127.633947 L 190.48181 127.633947 C 184.649034 127.633947 179.899487 122.967726 179.899487 117.051624 L 179.899487 11.228396 C 179.899487 5.39562 184.649034 0.646073 190.48181 0.646073 Z M 190.48181 0.646073 " transform="matrix(0.0468795,0,0,0.0468795,0,10.079087)"/>
</g>
</svg>
